svg/ory.svg

<?xml version="1.0" encoding="UTF-8"?>
<svg xmlns="http://www.w3.org/2000/svg" xmlns:xlink="http://www.w3.org/1999/xlink" width="15.941" height="32" viewBox="0 0 15.941 32">
<path fill-rule="nonzero" fill="rgb(38.431373%, 45.490196%, 95.294118%)" fill-opacity="1" d="M 8.125 31.941406 C 8.035156 32.019531 7.902344 32.019531 7.8125 31.941406 L 6.328125 31.160156 L 0.390625 28.113281 C 0.15625 28.035156 0 27.722656 0 27.410156 L 0 25.066406 C 0 24.753906 0.3125 24.597656 0.546875 24.753906 L 7.96875 28.582031 L 15.394531 24.753906 C 15.628906 24.597656 15.941406 24.832031 15.941406 25.066406 L 15.941406 27.410156 C 15.941406 27.695312 15.792969 27.960938 15.550781 28.113281 L 11.410156 30.300781 L 9.691406 31.160156 Z M 7.8125 0.0585938 C 7.902344 -0.0117188 8.035156 -0.0117188 8.125 0.0585938 L 9.613281 0.839844 L 15.472656 3.886719 C 15.714844 4.039062 15.863281 4.304688 15.863281 4.589844 L 15.863281 6.933594 C 15.863281 7.246094 15.550781 7.402344 15.316406 7.246094 L 7.890625 3.417969 L 0.546875 7.246094 C 0.3125 7.402344 0 7.167969 0 6.933594 L 0 4.589844 C 0 4.304688 0.148438 4.039062 0.390625 3.886719 L 4.53125 1.699219 Z M 7.96875 21.078125 C 5.234375 21.078125 3.046875 18.8125 3.046875 16 C 3.046875 13.1875 5.234375 10.921875 7.96875 10.921875 C 10.707031 10.921875 12.894531 13.1875 12.894531 16 C 12.894531 18.8125 10.707031 21.078125 7.96875 21.078125 M 7.96875 7.792969 C 3.59375 7.792969 0 11.46875 0 16 C 0 20.53125 3.59375 24.207031 7.96875 24.207031 C 12.347656 24.207031 15.941406 20.53125 15.941406 16 C 15.941406 11.46875 12.347656 7.792969 7.96875 7.792969 M 7.96875 7.792969 "/>
</svg>

<svg role="img" viewBox="0 0 15.941 32" height="32" width="15.941" xmlns="http://www.w3.org/2000/svg"><path d="M8.125 31.941a.238.238 0 0 1-.312 0l-1.485-.78-5.937-3.048C.156 28.035 0 27.723 0 27.41v-2.344c0-.312.313-.468.547-.312l7.422 3.828 7.426-3.828c.234-.156.546.078.546.312v2.344c0 .285-.148.55-.39.703l-4.14 2.188-1.72.86ZM7.813.06c.09-.07.222-.07.312 0l1.488.78 5.86 3.048c.242.152.39.418.39.703v2.344c0 .312-.312.468-.547.312L7.891 3.418.547 7.246C.312 7.402 0 7.168 0 6.934V4.59c0-.285.148-.55.39-.703l4.141-2.188Zm.156 21.02c-2.735 0-4.922-2.267-4.922-5.079s2.187-5.078 4.922-5.078c2.738 0 4.926 2.265 4.926 5.078s-2.188 5.078-4.926 5.078m0-13.285C3.594 7.793 0 11.469 0 16s3.594 8.207 7.969 8.207c4.379 0 7.972-3.676 7.972-8.207 0-4.531-3.593-8.207-7.972-8.207m0 0" fill="rgb(38.431373%, 45.490196%, 95.294118%)"/></svg>
